apps/web/public/images/logo-data-inclusion.svg

<svg width="144" height="36" viewBox="0 0 144 36" fill="none" xmlns="http://www.w3.org/2000/svg">
    <path d="M0.864014 10.8172C0.864014 13.9848 2.95921 16.6784 6.39361 16.6784C7.86241 16.6784 8.92081 16.2259 9.76321 15.3855V16.2474H12.528V0.086192H9.76321V6.249C8.92081 5.40862 7.86241 4.9561 6.39361 4.9561C2.95921 4.9561 0.864014 7.64964 0.864014 10.8172ZM3.73681 10.8172C3.73681 8.92099 4.92481 7.5419 6.78241 7.5419C8.01361 7.5419 9.02881 8.05906 9.76321 9.05028V12.5842C9.02881 13.5754 8.01361 14.0926 6.78241 14.0926C4.92481 14.0926 3.73681 12.7135 3.73681 10.8172Z" fill="#000091"/>
    <path d="M18.6678 16.5706C19.9422 16.5706 21.2382 16.0319 21.9294 15.1915V16.2474H24.6726V9.22267C24.6726 6.83081 23.0526 4.9561 19.899 4.9561C17.9118 4.9561 16.3134 5.77494 15.3414 7.11093L17.3502 8.64086C17.9334 7.84358 18.7542 7.34796 19.8126 7.34796C21.0654 7.34796 21.9294 8.08061 21.9294 9.22267V9.50279L18.603 10.063C16.2702 10.4509 14.9958 11.6792 14.9958 13.3168C14.9958 15.3208 16.4862 16.5706 18.6678 16.5706ZM17.7174 13.1875C17.7174 12.5196 18.1926 12.0455 19.3374 11.8516L21.9294 11.4206V12.9505C21.3894 13.8124 20.4822 14.3943 19.2294 14.3943C18.3006 14.3943 17.7174 13.9202 17.7174 13.1875Z" fill="#000091"/>
    <path d="M28.2891 12.2825C28.2891 14.933 29.5851 16.4629 32.3067 16.4629C33.2139 16.4629 33.8619 16.3551 34.4019 16.1181V13.7263C34.0347 13.8771 33.5379 13.9633 32.7819 13.9633C31.7019 13.9633 31.0539 13.4892 31.0539 12.2825V7.84358H34.3803V5.38707H31.0539V2.67199H28.2891V5.38707H26.2587V7.84358H28.2891V12.2825Z" fill="#000091"/>
    <path d="M39.6882 16.5706C40.9626 16.5706 42.2586 16.0319 42.9498 15.1915V16.2474H45.693V9.22267C45.693 6.83081 44.073 4.9561 40.9194 4.9561C38.9322 4.9561 37.3338 5.77494 36.3618 7.11093L38.3706 8.64086C38.9538 7.84358 39.7746 7.34796 40.833 7.34796C42.0858 7.34796 42.9498 8.08061 42.9498 9.22267V9.50279L39.6234 10.063C37.2906 10.4509 36.0162 11.6792 36.0162 13.3168C36.0162 15.3208 37.5066 16.5706 39.6882 16.5706ZM38.7378 13.1875C38.7378 12.5196 39.213 12.0455 40.3578 11.8516L42.9498 11.4206V12.9505C42.4098 13.8124 41.5026 14.3943 40.2498 14.3943C39.321 14.3943 38.7378 13.9202 38.7378 13.1875Z" fill="#000091"/>
    <path d="M57.2061 2.56424C57.9189 2.56424 58.4805 1.98244 58.4805 1.27135C58.4805 0.581803 57.9189 0 57.2061 0C56.4933 0 55.9101 0.581803 55.9101 1.27135C55.9101 1.98244 56.4933 2.56424 57.2061 2.56424ZM56.2773 16.2474H58.1133V5.38707H56.2773V16.2474Z" fill="#000091"/>
    <path d="M61.7777 16.2474H63.6137V8.72706C64.3049 7.585 65.2985 6.67997 66.8753 6.67997C68.5601 6.67997 69.6617 7.80048 69.6617 9.73982V16.2474H71.4977V9.67518C71.4977 6.59377 69.6833 4.9561 67.2425 4.9561C65.6225 4.9561 64.4993 5.64565 63.6137 6.61532V5.38707H61.7777V16.2474Z" fill="#000091"/>
    <path d="M79.9885 14.9545C77.6341 14.9545 75.9709 13.1445 75.9709 10.8172C75.9709 8.51157 77.6341 6.67997 79.9669 6.67997C81.3277 6.67997 82.4293 7.32642 83.0989 8.27454L84.5461 7.17558C83.5309 5.83958 81.9325 4.9561 79.9669 4.9561C76.3597 4.9561 74.0485 7.64964 74.0485 10.8172C74.0485 13.9848 76.3597 16.6784 79.9669 16.6784C81.9541 16.6784 83.5309 15.8164 84.5461 14.4589L83.0989 13.3599C82.4293 14.3081 81.3277 14.9545 79.9885 14.9545Z" fill="#000091"/>
    <path d="M86.848 16.2474H88.6841V0.086192H86.848V16.2474Z" fill="#000091"/>
    <path d="M99.9301 11.593C99.9301 13.7263 98.7636 14.9545 96.9492 14.9545C95.0917 14.9545 93.9468 13.7263 93.9468 11.593V5.38707H92.1108V11.5283C92.1108 14.7821 93.9901 16.6784 96.9277 16.6784C99.8869 16.6784 101.766 14.7821 101.766 11.5283V5.38707H99.9301V11.593Z" fill="#000091"/>
    <path d="M103.96 14.7606C104.953 15.9888 106.314 16.6784 108.042 16.6784C110.073 16.6784 111.693 15.407 111.714 13.3815C111.714 9.67518 106.249 10.4509 106.249 8.01596C106.249 7.17558 106.876 6.48603 108.042 6.48603C108.993 6.48603 109.813 7.00319 110.397 7.82203L111.671 6.74461C110.915 5.68875 109.576 4.9561 108.021 4.9561C105.925 4.9561 104.478 6.35674 104.478 8.05906C104.478 11.8947 109.921 11.0327 109.921 13.4677C109.921 14.4158 109.23 15.1484 108.021 15.1484C106.919 15.1484 106.012 14.6097 105.256 13.6616L103.96 14.7606Z" fill="#000091"/>
    <path d="M115.416 2.56424C116.128 2.56424 116.69 1.98244 116.69 1.27135C116.69 0.581803 116.128 0 115.416 0C114.703 0 114.12 0.581803 114.12 1.27135C114.12 1.98244 114.703 2.56424 115.416 2.56424ZM114.487 16.2474H116.323V5.38707H114.487V16.2474Z" fill="#000091"/>
    <path d="M124.955 4.9561C121.434 4.9561 119.058 7.64964 119.058 10.8172C119.058 13.9848 121.434 16.6784 124.955 16.6784C128.454 16.6784 130.852 13.9848 130.852 10.8172C130.852 7.64964 128.454 4.9561 124.955 4.9561ZM124.977 14.9545C122.644 14.9545 120.981 13.0798 120.981 10.8172C120.981 8.55467 122.644 6.67997 124.977 6.67997C127.245 6.67997 128.908 8.55467 128.908 10.8172C128.908 13.0583 127.245 14.9545 124.977 14.9545Z" fill="#000091"/>
    <path d="M133.588 16.2474H135.424V8.72706C136.115 7.585 137.108 6.67997 138.685 6.67997C140.37 6.67997 141.472 7.80048 141.472 9.73982V16.2474H143.308V9.67518C143.308 6.59377 141.493 4.9561 139.052 4.9561C137.432 4.9561 136.309 5.64565 135.424 6.61532V5.38707H133.588V16.2474Z" fill="#000091"/>
    <path d="M50.7998 13.4248C52.3766 13.4248 53.5862 12.175 53.5862 10.6666C53.5862 9.20133 52.3766 7.99463 50.7998 7.99463C49.223 7.99463 47.9702 9.20133 47.9702 10.6666C47.9702 12.175 49.223 13.4248 50.7998 13.4248Z" fill="#E1000F"/>
    <rect y="21.6343" width="144" height="14.3655" rx="1" fill="#000091"/>
    <path d="M9.34929 31.974C7.7867 31.974 6.66291 30.7461 6.66291 29.1766C6.66291 27.6177 7.7867 26.3792 9.34929 26.3792C10.2911 26.3792 11.051 26.8383 11.5219 27.511L12.5066 26.7529C11.8109 25.8347 10.7085 25.2261 9.34929 25.2261C6.9947 25.2261 5.39999 27.0412 5.39999 29.1766C5.39999 31.312 6.9947 33.1271 9.34929 33.1271C10.7085 33.1271 11.8109 32.5185 12.5066 31.6003L11.5219 30.8422C11.051 31.5149 10.2911 31.974 9.34929 31.974Z" fill="white"/>
    <path d="M17.2823 25.2261C14.9277 25.2261 13.333 27.0412 13.333 29.1766C13.333 31.312 14.9277 33.1271 17.2823 33.1271C19.6261 33.1271 21.2315 31.312 21.2315 29.1766C21.2315 27.0412 19.6261 25.2261 17.2823 25.2261ZM17.2823 31.974C15.7197 31.974 14.5959 30.7461 14.5959 29.1766C14.5959 27.6177 15.7197 26.3792 17.2823 26.3792C18.8448 26.3792 19.9579 27.6071 19.9579 29.1766C19.9579 30.7354 18.8448 31.974 17.2823 31.974Z" fill="white"/>
    <path d="M22.901 32.9136H24.1211V27.0091L27.9741 32.9136H29.5688V25.4396H28.338V31.344L24.485 25.4396H22.901V32.9136Z" fill="white"/>
    <path d="M31.066 26.5607H33.4741V32.9136H34.7049V26.5607H37.113V25.4396H31.066V26.5607Z" fill="white"/>
    <path d="M38.6311 32.9136H39.8512V29.7532H40.7502C40.793 29.7532 40.8358 29.7532 40.8893 29.7532L42.9763 32.9136H44.4319L42.0559 29.5076C42.8372 29.1766 43.2867 28.5039 43.2867 27.5964C43.2867 26.2724 42.3235 25.4396 40.7502 25.4396H38.6311V32.9136ZM40.8144 26.4753C41.5743 26.4753 42.0131 26.9024 42.0131 27.575C42.0131 28.2904 41.5743 28.7175 40.8144 28.7175H39.8512V26.4753H40.8144Z" fill="white"/>
    <path d="M45.6233 32.9136H46.8434V25.4396H45.6233V32.9136Z" fill="white"/>
    <path d="M49.1561 32.9136H51.3287C52.9769 32.9136 53.9937 32.0808 53.9937 30.7461C53.9937 29.924 53.5335 29.262 52.6987 28.931C53.2552 28.6 53.5549 28.0662 53.5549 27.4256C53.5549 26.1977 52.6452 25.4396 51.1575 25.4396H49.1561V32.9136ZM51.1789 26.4753C51.8746 26.4753 52.2813 26.8383 52.2813 27.4576C52.2813 28.1089 51.8746 28.4826 51.1789 28.4826H50.3762V26.4753H51.1789ZM51.3929 29.5076C52.2277 29.5076 52.7201 29.9347 52.7201 30.6927C52.7201 31.4401 52.2277 31.8779 51.3929 31.8779H50.3762V29.5076H51.3929Z" fill="white"/>
    <path d="M60.1936 30.1375C60.1936 31.312 59.5193 31.974 58.4704 31.974C57.4002 31.974 56.7259 31.312 56.7259 30.1375V25.4396H55.5058V30.0521C55.5058 31.9847 56.6617 33.1271 58.4704 33.1271C60.2792 33.1271 61.4244 31.9847 61.4244 30.0521V25.4396H60.1936V30.1375Z" fill="white"/>
    <path d="M62.7665 26.5607H65.1746V32.9136H66.4054V26.5607H68.8135V25.4396H62.7665V26.5607Z" fill="white"/>
    <path d="M70.3315 32.9136H74.5056V31.8779H71.5516V29.625H74.0775V28.5894H71.5516V26.4753H74.5056V25.4396H70.3315V32.9136Z" fill="white"/>
    <path d="M80.9614 30.1375C80.9614 31.312 80.2871 31.974 79.2383 31.974C78.168 31.974 77.4937 31.312 77.4937 30.1375V25.4396H76.2736V30.0521C76.2736 31.9847 77.4295 33.1271 79.2383 33.1271C81.047 33.1271 82.1922 31.9847 82.1922 30.0521V25.4396H80.9614V30.1375Z" fill="white"/>
    <path d="M84.2743 32.9136H85.4944V29.7532H86.3934C86.4363 29.7532 86.4791 29.7532 86.5326 29.7532L88.6196 32.9136H90.0752L87.6992 29.5076C88.4805 29.1766 88.93 28.5039 88.93 27.5964C88.93 26.2724 87.9667 25.4396 86.3934 25.4396H84.2743V32.9136ZM86.4577 26.4753C87.2176 26.4753 87.6564 26.9024 87.6564 27.575C87.6564 28.2904 87.2176 28.7175 86.4577 28.7175H85.4944V26.4753H86.4577Z" fill="white"/>
    <path d="M97.4585 25.2261C95.1039 25.2261 93.5092 27.0412 93.5092 29.1766C93.5092 31.312 95.1039 33.1271 97.4585 33.1271C99.8023 33.1271 101.408 31.312 101.408 29.1766C101.408 27.0412 99.8023 25.2261 97.4585 25.2261ZM97.4585 31.974C95.8959 31.974 94.7721 30.7461 94.7721 29.1766C94.7721 27.6177 95.8959 26.3792 97.4585 26.3792C99.021 26.3792 100.134 27.6071 100.134 29.1766C100.134 30.7354 99.021 31.974 97.4585 31.974Z" fill="white"/>
    <path d="M103.077 32.9136H104.297V29.625H106.823V28.5894H104.297V26.4753H107.251V25.4396H103.077V32.9136Z" fill="white"/>
    <path d="M108.773 32.9136H109.994V29.625H112.519V28.5894H109.994V26.4753H112.948V25.4396H108.773V32.9136Z" fill="white"/>
    <path d="M114.47 32.9136H115.69V25.4396H114.47V32.9136Z" fill="white"/>
    <path d="M121.31 31.974C119.747 31.974 118.623 30.7461 118.623 29.1766C118.623 27.6177 119.747 26.3792 121.31 26.3792C122.251 26.3792 123.011 26.8383 123.482 27.511L124.467 26.7529C123.771 25.8347 122.669 25.2261 121.31 25.2261C118.955 25.2261 117.36 27.0412 117.36 29.1766C117.36 31.312 118.955 33.1271 121.31 33.1271C122.669 33.1271 123.771 32.5185 124.467 31.6003L123.482 30.8422C123.011 31.5149 122.251 31.974 121.31 31.974Z" fill="white"/>
    <path d="M126.029 32.9136H127.25V25.4396H126.029V32.9136Z" fill="white"/>
    <path d="M129.562 32.9136H133.736V31.8779H130.782V29.625H133.308V28.5894H130.782V26.4753H133.736V25.4396H129.562V32.9136Z" fill="white"/>
    <path d="M135.687 32.9136H139.861V31.7925H136.907V25.4396H135.687V32.9136Z" fill="white"/>
</svg>

<svg width="144" height="36" viewBox="0 0 144 36" fill="none" xmlns="http://www.w3.org/2000/svg"><path d="M.864 10.817c0 3.168 2.095 5.861 5.53 5.861 1.468 0 2.527-.452 3.37-1.293v.862h2.764V.087H9.763v6.162c-.842-.84-1.9-1.293-3.37-1.293C2.96 4.956.865 7.65.865 10.817m2.873 0c0-1.896 1.188-3.275 3.045-3.275 1.232 0 2.247.517 2.981 1.508v3.534c-.734.991-1.75 1.509-2.98 1.509-1.858 0-3.046-1.38-3.046-3.276m14.93 5.753c1.274 0 2.57-.538 3.261-1.379v1.056h2.744V9.223c0-2.392-1.62-4.267-4.774-4.267-1.987 0-3.586.819-4.558 2.155l2.01 1.53c.582-.797 1.403-1.293 2.462-1.293 1.252 0 2.116.733 2.116 1.875v.28l-3.326.56c-2.333.388-3.607 1.616-3.607 3.254 0 2.004 1.49 3.254 3.672 3.254m-.95-3.383c0-.667.475-1.141 1.62-1.335l2.591-.431v1.53c-.54.861-1.447 1.443-2.7 1.443-.928 0-1.512-.474-1.512-1.207m10.573-.905c0 2.65 1.295 4.18 4.017 4.18.907 0 1.555-.108 2.095-.345v-2.392c-.367.151-.864.237-1.62.237-1.08 0-1.728-.474-1.728-1.68v-4.44h3.326V5.388h-3.326V2.672h-2.765v2.715h-2.03v2.457h2.03zm11.398 4.287c1.275 0 2.57-.538 3.262-1.379v1.056h2.743V9.223c0-2.392-1.62-4.267-4.774-4.267-1.987 0-3.585.819-4.557 2.155l2.009 1.53c.583-.797 1.404-1.293 2.462-1.293 1.253 0 2.117.733 2.117 1.875v.28l-3.327.56c-2.332.388-3.607 1.616-3.607 3.254 0 2.004 1.49 3.254 3.672 3.254m-.95-3.383c0-.667.475-1.141 1.62-1.335l2.592-.431v1.53c-.54.861-1.447 1.443-2.7 1.443-.929 0-1.512-.474-1.512-1.207M57.206 2.564a1.28 1.28 0 0 0 1.274-1.293C58.48.581 57.92 0 57.207 0S55.91.582 55.91 1.271c0 .711.583 1.293 1.296 1.293m-.929 13.683h1.836V5.387h-1.836zm5.501 0h1.836v-7.52c.69-1.142 1.685-2.047 3.261-2.047 1.685 0 2.787 1.12 2.787 3.06v6.507h1.836V9.675c0-3.081-1.815-4.719-4.255-4.719-1.62 0-2.744.69-3.63 1.66v-1.23h-1.835zm18.211-1.292c-2.355 0-4.018-1.81-4.018-4.138 0-2.305 1.663-4.137 3.996-4.137 1.36 0 2.462.646 3.132 1.595l1.447-1.1c-1.015-1.335-2.614-2.219-4.58-2.219-3.606 0-5.917 2.694-5.917 5.861 0 3.168 2.31 5.861 5.918 5.861 1.987 0 3.564-.862 4.58-2.22l-1.448-1.098a3.76 3.76 0 0 1-3.11 1.595m6.859 1.292h1.836V.087h-1.836zm13.082-4.654c0 2.133-1.166 3.361-2.98 3.361-1.858 0-3.003-1.228-3.003-3.361V5.387H92.11v6.141c0 3.254 1.88 5.15 4.817 5.15 2.959 0 4.838-1.896 4.838-5.15v-6.14H99.93zm4.03 3.167c.993 1.229 2.354 1.918 4.082 1.918 2.031 0 3.651-1.271 3.672-3.296 0-3.707-5.465-2.931-5.465-5.366 0-.84.627-1.53 1.793-1.53.951 0 1.771.517 2.355 1.336l1.274-1.077c-.756-1.056-2.095-1.789-3.65-1.789-2.096 0-3.543 1.4-3.543 3.103 0 3.836 5.443 2.974 5.443 5.409 0 .948-.691 1.68-1.9 1.68-1.102 0-2.009-.538-2.765-1.486zm11.456-12.196a1.28 1.28 0 0 0 1.274-1.293c0-.69-.562-1.271-1.274-1.271-.713 0-1.296.582-1.296 1.271 0 .711.583 1.293 1.296 1.293m-.929 13.683h1.836V5.387h-1.836zm10.468-11.291c-3.521 0-5.897 2.694-5.897 5.861 0 3.168 2.376 5.861 5.897 5.861 3.499 0 5.897-2.693 5.897-5.86s-2.398-5.862-5.897-5.862m.022 9.999c-2.333 0-3.996-1.875-3.996-4.138s1.663-4.137 3.996-4.137c2.268 0 3.931 1.875 3.931 4.137 0 2.241-1.663 4.137-3.931 4.137m8.611 1.293h1.836v-7.52c.691-1.142 1.684-2.047 3.261-2.047 1.685 0 2.787 1.12 2.787 3.06v6.507h1.836V9.675c0-3.081-1.815-4.719-4.256-4.719-1.62 0-2.743.69-3.628 1.66v-1.23h-1.836z" fill="#000091"/><path d="M50.8 13.425a2.76 2.76 0 0 0 2.786-2.758c0-1.466-1.21-2.672-2.786-2.672s-2.83 1.206-2.83 2.672c0 1.508 1.253 2.758 2.83 2.758" fill="#E1000F"/><rect y="21.634" width="144" height="14.366" rx="1" fill="#000091"/><path d="M9.35 31.974c-1.563 0-2.687-1.228-2.687-2.797 0-1.56 1.124-2.798 2.686-2.798.942 0 1.702.46 2.173 1.132l.985-.758c-.696-.918-1.798-1.527-3.158-1.527-2.354 0-3.949 1.815-3.949 3.95s1.595 3.951 3.95 3.951c1.359 0 2.46-.608 3.157-1.527l-.985-.758a2.6 2.6 0 0 1-2.173 1.132m7.933-6.748c-2.354 0-3.949 1.815-3.949 3.95s1.595 3.951 3.95 3.951c2.343 0 3.948-1.815 3.948-3.95s-1.605-3.95-3.949-3.95m0 6.748c-1.562 0-2.686-1.228-2.686-2.797 0-1.56 1.124-2.798 2.686-2.798 1.563 0 2.676 1.228 2.676 2.798 0 1.558-1.113 2.797-2.676 2.797m5.619.939h1.22v-5.905l3.853 5.905h1.595V25.44h-1.231v5.904l-3.853-5.904h-1.584zm8.165-6.354h2.408v6.354h1.23V26.56h2.409v-1.12h-6.047zm7.565 6.354h1.22v-3.16h1.038l2.087 3.16h1.456l-2.376-3.406c.781-.331 1.23-1.004 1.23-1.912 0-1.324-.962-2.156-2.536-2.156h-2.119zm2.183-6.439c.76 0 1.2.427 1.2 1.1 0 .715-.44 1.143-1.2 1.143h-.963v-2.243zm4.809 6.439h1.22V25.44h-1.22zm3.533 0h2.173c1.648 0 2.665-.833 2.665-2.168 0-.822-.46-1.484-1.295-1.815a1.69 1.69 0 0 0 .856-1.505c0-1.228-.91-1.986-2.398-1.986h-2zm2.023-6.439c.696 0 1.102.363 1.102.983 0 .65-.406 1.025-1.102 1.025h-.803v-2.008zm.214 3.033c.835 0 1.327.427 1.327 1.185 0 .747-.492 1.185-1.327 1.185h-1.017v-2.37zm8.801.63c0 1.174-.675 1.836-1.724 1.836-1.07 0-1.744-.662-1.744-1.837V25.44h-1.22v4.612c0 1.933 1.156 3.075 2.964 3.075 1.81 0 2.954-1.142 2.954-3.075V25.44h-1.23zm2.573-3.578h2.408v6.354h1.23V26.56h2.409v-1.12h-6.047zm7.565 6.354h4.174v-1.036h-2.954v-2.253h2.525v-1.036h-2.525v-2.114h2.954V25.44h-4.174zm10.629-2.776c0 1.174-.674 1.836-1.723 1.836-1.07 0-1.744-.662-1.744-1.837V25.44h-1.22v4.612c0 1.933 1.156 3.075 2.964 3.075s2.954-1.142 2.954-3.075V25.44h-1.23zm3.313 2.776h1.22v-3.16h1.039l2.087 3.16h1.455L87.7 29.508c.782-.331 1.231-1.004 1.231-1.912 0-1.324-.963-2.156-2.537-2.156h-2.119zm2.184-6.439c.76 0 1.198.427 1.198 1.1 0 .715-.438 1.143-1.198 1.143h-.964v-2.243zm11.001-1.249c-2.355 0-3.95 1.815-3.95 3.95s1.595 3.951 3.95 3.951c2.343 0 3.949-1.815 3.949-3.95s-1.606-3.95-3.95-3.95m0 6.748c-1.563 0-2.687-1.228-2.687-2.797 0-1.56 1.124-2.798 2.686-2.798 1.563 0 2.676 1.228 2.676 2.798 0 1.558-1.113 2.797-2.675 2.797m5.619.939h1.22v-3.289h2.526v-1.036h-2.526v-2.114h2.954V25.44h-4.174zm5.696 0h1.221v-3.289h2.525v-1.036h-2.525v-2.114h2.954V25.44h-4.175zm5.697 0h1.22V25.44h-1.22zm6.84-.94c-1.563 0-2.687-1.228-2.687-2.797 0-1.56 1.124-2.798 2.687-2.798.941 0 1.701.46 2.172 1.132l.985-.758c-.696-.918-1.798-1.527-3.157-1.527-2.355 0-3.95 1.815-3.95 3.95s1.595 3.951 3.95 3.951c1.359 0 2.461-.608 3.157-1.527l-.985-.758a2.6 2.6 0 0 1-2.172 1.132m4.719.94h1.221V25.44h-1.221zm3.533 0h4.174v-1.036h-2.954v-2.253h2.526v-1.036h-2.526v-2.114h2.954V25.44h-4.174zm6.125 0h4.174v-1.122h-2.954V25.44h-1.22z" fill="#fff"/></svg>
